svg/remove.svg

<svg width="284" height="284" viewBox="0 0 284 284" fill="none" xmlns="http://www.w3.org/2000/svg">
<path fill-rule="evenodd" clip-rule="evenodd" d="M156.567 141.717L222.359 75.9247C226.46 71.8247 226.46 65.1757 222.359 61.0757C218.257 56.9748 211.611 56.9748 207.509 61.0757L141.717 126.867L75.9247 61.0757C71.8237 56.9748 65.1767 56.9748 61.0757 61.0757C56.9748 65.1757 56.9748 71.8247 61.0757 75.9247L126.868 141.717L61.0757 207.509C56.9748 211.609 56.9748 218.258 61.0757 222.358C63.1267 224.409 65.8127 225.434 68.5007 225.434C71.1867 225.434 73.8757 224.408 75.9247 222.358L141.717 156.567L207.509 222.358C209.56 224.409 212.247 225.434 214.934 225.434C217.622 225.434 220.308 224.408 222.359 222.358C226.46 218.258 226.46 211.609 222.359 207.509L156.567 141.717Z" fill="#1A1919"/>
</svg>

<svg width="284" height="284" viewBox="0 0 284 284" xmlns="http://www.w3.org/2000/svg">
    <path d="M156.567 141.717l65.792-65.792c4.1-4.1 4.1-10.75 0-14.85-4.102-4.1-10.748-4.1-14.85 0l-65.792 65.792-65.792-65.791c-4.101-4.101-10.748-4.101-14.85 0-4.1 4.1-4.1 10.749 0 14.849l65.793 65.792-65.792 65.792c-4.101 4.1-4.101 10.749 0 14.849a10.465 10.465 0 0 0 7.425 3.076c2.686 0 5.375-1.026 7.424-3.076l65.792-65.791 65.792 65.79a10.467 10.467 0 0 0 7.425 3.077 10.47 10.47 0 0 0 7.425-3.076c4.1-4.1 4.1-10.75 0-14.85l-65.792-65.791z" fill="#1A1918" fill-rule="evenodd"/>
</svg>
